images/icons8-instagram.svg

<svg xmlns="http://www.w3.org/2000/svg"  viewBox="0 0 48 48" width="48px" height="48px"><path d="M 16.5 5 C 10.16639 5 5 10.16639 5 16.5 L 5 31.5 C 5 37.832757 10.166209 43 16.5 43 L 31.5 43 C 37.832938 43 43 37.832938 43 31.5 L 43 16.5 C 43 10.166209 37.832757 5 31.5 5 L 16.5 5 z M 16.5 8 L 31.5 8 C 36.211243 8 40 11.787791 40 16.5 L 40 31.5 C 40 36.211062 36.211062 40 31.5 40 L 16.5 40 C 11.787791 40 8 36.211243 8 31.5 L 8 16.5 C 8 11.78761 11.78761 8 16.5 8 z M 34 12 C 32.895 12 32 12.895 32 14 C 32 15.105 32.895 16 34 16 C 35.105 16 36 15.105 36 14 C 36 12.895 35.105 12 34 12 z M 24 14 C 18.495178 14 14 18.495178 14 24 C 14 29.504822 18.495178 34 24 34 C 29.504822 34 34 29.504822 34 24 C 34 18.495178 29.504822 14 24 14 z M 24 17 C 27.883178 17 31 20.116822 31 24 C 31 27.883178 27.883178 31 24 31 C 20.116822 31 17 27.883178 17 24 C 17 20.116822 20.116822 17 24 17 z"/></svg>

<svg xmlns="http://www.w3.org/2000/svg" xmlns:xlink="http://www.w3.org/1999/xlink" viewBox="0,0,256,256" width="48px" height="48px" fill-rule="nonzero"><g fill="#ffffff" fill-rule="nonzero" stroke="none" stroke-width="1" stroke-linecap="butt" stroke-linejoin="miter" stroke-miterlimit="10" stroke-dasharray="" stroke-dashoffset="0" font-family="none" font-weight="none" font-size="none" text-anchor="none" style="mix-blend-mode: normal"><g transform="scale(5.33333,5.33333)"><path d="M16.5,5c-6.33361,0 -11.5,5.16639 -11.5,11.5v15c0,6.33276 5.16621,11.5 11.5,11.5h15c6.33294,0 11.5,-5.16706 11.5,-11.5v-15c0,-6.33379 -5.16724,-11.5 -11.5,-11.5zM16.5,8h15c4.71124,0 8.5,3.78779 8.5,8.5v15c0,4.71106 -3.78894,8.5 -8.5,8.5h-15c-4.71221,0 -8.5,-3.78876 -8.5,-8.5v-15c0,-4.71239 3.78761,-8.5 8.5,-8.5zM34,12c-1.105,0 -2,0.895 -2,2c0,1.105 0.895,2 2,2c1.105,0 2,-0.895 2,-2c0,-1.105 -0.895,-2 -2,-2zM24,14c-5.50482,0 -10,4.49518 -10,10c0,5.50482 4.49518,10 10,10c5.50482,0 10,-4.49518 10,-10c0,-5.50482 -4.49518,-10 -10,-10zM24,17c3.88318,0 7,3.11682 7,7c0,3.88318 -3.11682,7 -7,7c-3.88318,0 -7,-3.11682 -7,-7c0,-3.88318 3.11682,-7 7,-7z"></path></g></g></svg>
